X:114
T:Di Goldene Chasene
O:klezmer
M:4/4
L:1/8
Q:1/4=120
K:Am
V:1
EA c |:"Am" e2 a3/2 a/^ga ef |"Dm" d4 zf ~ed |"E" e4 z~d cd |
e4 zE Ac |"Am" e2 a2 ^ga ef |"Dm" d6 "D#" _e2 |"E7" e2 c2 de/d/ cB |
|1 A4 zE Ac :|2 fine"Am" A4 a4 ||  |:"Am" c'2 ~ba c'2 ~ba |e6 "A7" z_e |
"Dm" d2 d2 d3/2 e/f/e/d |"Am" e6 ze |"Am" c'2 ~ba c'2 ~ba |"Dm" f6 "D#" z2 |
"E" ed dc cB BA |1 "Am" c4 z2 "E7" e2 :|2 "Am" A6 ze ||  |:"Am" c'/b/a c'/b/a .a.a .az |
"Am" c'/b/a c'/b/a "Dm" .d.d .dz |{(d/}"Dm" f2) f2 {(g/}f)e gf |"Am" e6 z2 |{(e}"Dm" d) ef2 Bc d2 |
"Am" cd e2 "F" AB c2 |"E" ed dc cB BA |{(A/}"Am" c4) [z^c4]E/F/G/A/ B/^c/|"Dm" d ef2 Bc d2 |
"Am" cd e2 "F" AB c2 |{(d}"E" e) dd cc BB A|1 {^G/}"Am" A6 ze :|2 "Am" A4 zE Ac ||





